site/static/images/icons/pulumi-icon.svg

<svg fill="none" viewBox="69.62 62 160.35 169.55" xmlns="http://www.w3.org/2000/svg"><path d="m97.0239 205.745c6.2691-3.62 6.2801-15.339.0232-26.176-6.2566-10.836-16.411-16.687-22.6805-13.067s-6.2799 15.339-.0233 26.176c6.2566 10.836 16.4111 16.686 22.6806 13.067z" fill="#f26e7e"/><path d="m225.253 192.693c6.256-10.836 6.246-22.555-.024-26.175-6.269-3.62-16.423 2.23-22.68 13.067-6.257 10.836-6.246 22.555.023 26.175 6.27 3.62 16.424-2.23 22.681-13.067z" fill="#8a3391"/><path d="m139.748 230.446c6.27-3.62 6.28-15.339.024-26.176-6.257-10.836-16.411-16.686-22.681-13.067-6.269 3.62-6.28 15.339-.023 26.176 6.257 10.836 16.411 16.687 22.68 13.067z" fill="#f26e7e"/><path d="m182.536 217.354c6.257-10.837 6.247-22.556-.023-26.176-6.269-3.619-16.424 2.231-22.68 13.067-6.257 10.837-6.247 22.556.023 26.176 6.269 3.62 16.424-2.231 22.68-13.067z" fill="#8a3391"/><path d="m149.771 88.2169c12.513 0 22.657-5.8688 22.657-13.1084s-10.144-13.1085-22.657-13.1085c-12.514 0-22.658 5.8689-22.658 13.1085s10.144 13.1084 22.658 13.1084z" fill="#f7bf2a"/><path d="m97.0092 156.365c6.2698-3.619 6.2798-15.338.0233-26.175-6.2566-10.836-16.4111-16.687-22.6806-13.067s-6.2799 15.339-.0233 26.175c6.2567 10.837 16.4111 16.687 22.6806 13.067z" fill="#f26e7e"/><path d="m107.055 112.852c12.514 0 22.658-5.869 22.658-13.1082 0-7.2396-10.144-13.1085-22.658-13.1085-12.513 0-22.6571 5.8689-22.6571 13.1085 0 7.2392 10.1441 13.1082 22.6571 13.1082z" fill="#f7bf2a"/><path d="m225.228 143.326c6.256-10.837 6.246-22.556-.023-26.176-6.27-3.619-16.424 2.231-22.681 13.067-6.257 10.837-6.246 22.556.023 26.176 6.27 3.62 16.424-2.231 22.681-13.067z" fill="#8a3391"/><path d="m192.543 112.852c12.513 0 22.657-5.869 22.657-13.1082 0-7.2396-10.144-13.1085-22.657-13.1085s-22.657 5.8689-22.657 13.1085c0 7.2392 10.144 13.1082 22.657 13.1082z" fill="#f7bf2a"/><path d="m139.735 181.067c6.269-3.62 6.28-15.339.023-26.175-6.257-10.837-16.411-16.687-22.68-13.067-6.27 3.619-6.28 15.339-.024 26.175 6.257 10.837 16.411 16.687 22.681 13.067z" fill="#f26e7e"/><path d="m182.512 167.986c6.257-10.836 6.246-22.556-.023-26.175-6.27-3.62-16.424 2.23-22.681 13.067-6.257 10.836-6.246 22.555.023 26.175 6.27 3.62 16.424-2.23 22.681-13.067z" fill="#8a3391"/><path d="m149.771 137.543c12.513 0 22.657-5.869 22.657-13.109 0-7.239-10.144-13.108-22.657-13.108-12.514 0-22.658 5.869-22.658 13.108 0 7.24 10.144 13.109 22.658 13.109z" fill="#f7bf2a"/></svg>

<svg fill="none" xmlns="http://www.w3.org/2000/svg" viewBox="69.62 62 160.35 169.55">
	<path d="M97.0239 205.745C103.293 202.125 103.304 190.406 97.0471 179.569C90.7905 168.733 80.6361 162.882 74.3666 166.502C68.0971 170.122 68.0867 181.841 74.3433 192.678C80.5999 203.514 90.7544 209.364 97.0239 205.745Z" fill="#F26E7E">
	</path>
	<path d="M225.253 192.693C231.509 181.857 231.499 170.138 225.229 166.518C218.96 162.898 208.806 168.748 202.549 179.585C196.292 190.421 196.303 202.14 202.572 205.76C208.842 209.38 218.996 203.53 225.253 192.693Z" fill="#8A3391">
	</path>
	<path d="M139.748 230.446C146.018 226.826 146.028 215.107 139.772 204.27C133.515 193.434 123.361 187.584 117.091 191.203C110.822 194.823 110.811 206.542 117.068 217.379C123.325 228.215 133.479 234.066 139.748 230.446Z" fill="#F26E7E">
	</path>
	<path d="M182.536 217.354C188.793 206.517 188.783 194.798 182.513 191.178C176.244 187.559 166.089 193.409 159.833 204.245C153.576 215.082 153.586 226.801 159.856 230.421C166.125 234.041 176.28 228.19 182.536 217.354Z" fill="#8A3391">
	</path>
	<path d="M149.771 88.2169C162.284 88.2169 172.428 82.3481 172.428 75.1085C172.428 67.8689 162.284 62 149.771 62C137.257 62 127.113 67.8689 127.113 75.1085C127.113 82.3481 137.257 88.2169 149.771 88.2169Z" fill="#F7BF2A">
	</path>
	<path d="M97.0092 156.365C103.279 152.746 103.289 141.027 97.0325 130.19C90.7759 119.354 80.6214 113.503 74.3519 117.123C68.0824 120.743 68.072 132.462 74.3286 143.298C80.5853 154.135 90.7397 159.985 97.0092 156.365Z" fill="#F26E7E">
	</path>
	<path d="M107.055 112.852C119.569 112.852 129.713 106.983 129.713 99.7438C129.713 92.5042 119.569 86.6353 107.055 86.6353C94.542 86.6353 84.3979 92.5042 84.3979 99.7438C84.3979 106.983 94.542 112.852 107.055 112.852Z" fill="#F7BF2A">
	</path>
	<path d="M225.228 143.326C231.484 132.489 231.474 120.77 225.205 117.15C218.935 113.531 208.781 119.381 202.524 130.217C196.267 141.054 196.278 152.773 202.547 156.393C208.817 160.013 218.971 154.162 225.228 143.326Z" fill="#8A3391">
	</path>
	<path d="M192.543 112.852C205.056 112.852 215.2 106.983 215.2 99.7438C215.2 92.5042 205.056 86.6353 192.543 86.6353C180.03 86.6353 169.886 92.5042 169.886 99.7438C169.886 106.983 180.03 112.852 192.543 112.852Z" fill="#F7BF2A">
	</path>
	<path d="M139.735 181.067C146.004 177.447 146.015 165.728 139.758 154.892C133.501 144.055 123.347 138.205 117.078 141.825C110.808 145.444 110.798 157.164 117.054 168C123.311 178.837 133.465 184.687 139.735 181.067Z" fill="#F26E7E">
	</path>
	<path d="M182.512 167.986C188.769 157.15 188.758 145.43 182.489 141.811C176.219 138.191 166.065 144.041 159.808 154.878C153.551 165.714 153.562 177.433 159.831 181.053C166.101 184.673 176.255 178.823 182.512 167.986Z" fill="#8A3391">
	</path>
	<path d="M149.771 137.543C162.284 137.543 172.428 131.674 172.428 124.434C172.428 117.195 162.284 111.326 149.771 111.326C137.257 111.326 127.113 117.195 127.113 124.434C127.113 131.674 137.257 137.543 149.771 137.543Z" fill="#F7BF2A">
	</path>
</svg>
